svgs/crypto.svg

<svg width="192" height="192" viewBox="0 0 192 192" fill="none" xmlns="http://www.w3.org/2000/svg">
<path d="M71.945 79.1834H119.711C127.656 79.1814 127.656 79.1814 127.656 86.9287V125.705C127.656 133.5 127.656 133.5 119.711 133.5H71.945C64 133.5 64 133.5 64 125.707V86.9307C64 79.1834 64 79.1814 71.945 79.1834ZM95.828 98.5735C100.219 98.5735 103.823 102.038 103.823 106.319C103.823 110.602 100.219 114.114 95.828 114.114C91.4369 114.114 87.883 110.602 87.883 106.319C87.883 102.038 91.4369 98.5735 95.828 98.5735Z" stroke="black" stroke-width="12"/>
<path d="M154.438 44.8595C163.753 107.316 143.15 156.316 96.549 169.918C96.3653 169.971 96.1651 169.97 95.9819 169.915C50.9503 156.324 28.781 111.245 38.0956 44.8678C38.146 44.5085 38.3889 44.199 38.7276 44.0691L95.9068 22.1374C96.1373 22.0489 96.3925 22.0489 96.623 22.1374L153.808 44.0712C154.143 44.2 154.385 44.5038 154.438 44.8595Z" stroke="black" stroke-width="12" stroke-linecap="round"/>
<path d="M78.6173 63.1177V79.2389L111.68 79.2369V63.1177C111.68 54.2158 104.278 47 95.1486 47C86.019 47 78.6173 54.2158 78.6173 63.1177Z" stroke="black" stroke-width="8"/>
</svg>

<svg width="192" height="192" viewBox="0 0 192 192" fill="none" xmlns="http://www.w3.org/2000/svg"><path d="M71.945 79.183h47.766c7.945-.002 7.945-.002 7.945 7.746v38.776c0 7.795 0 7.795-7.945 7.795H71.945c-7.945 0-7.945 0-7.945-7.793V86.931c0-7.748 0-7.75 7.945-7.748Zm23.883 19.39c4.391 0 7.995 3.465 7.995 7.746 0 4.283-3.604 7.795-7.995 7.795s-7.945-3.512-7.945-7.795c0-4.281 3.554-7.746 7.945-7.746Z" stroke="#000" stroke-width="12"/><path d="M154.438 44.86c9.315 62.456-11.288 111.456-57.889 125.058a1.013 1.013 0 0 1-.567-.003C50.95 156.324 28.78 111.245 38.096 44.868c.05-.36.293-.669.632-.799l57.179-21.932a1 1 0 0 1 .716 0l57.185 21.934c.335.129.577.433.63.788Z" stroke="#000" stroke-width="12" stroke-linecap="round"/><path d="M78.617 63.118v16.12l33.063-.001v-16.12c0-8.901-7.402-16.117-16.531-16.117-9.13 0-16.532 7.216-16.532 16.118Z" stroke="#000" stroke-width="8"/></svg>
